X:1
T:Title
%%score ( 1 2 ) { 3 | 4 }
L:1/8
Q:1/4=97
M:4/4
K:F
V:1 treble nm="Grand Piano, Soprano"
V:2 treble 
V:3 treble nm="Choir Pad, From the Cyber Hymnal™"
V:4 bass 
V:1
 [FA][FA][FA][FA] [FA][FA][CG][CF] | [FA]2 [Fc]2 [Fc]4 | [Fd][Fd][Fd][Fd] [Fc][Fc][Fc][Fc] | %3
w: By~John~Robson~Sweney * * * * * * *|||
 [EB]2 [FA]2 [EG]4 | [FA][FA][FA][FA] [FA][FA][CG][CF] | [FA]2 [Fc]2 [Fc]4 | %6
w: |||
 [Fd][Fd][FB][DG] [CF][CF][CE][CF] | [FA]2 [EG]2 F4 | [Ac]>[Bd] [Ac][GB] [FA]2 [FA]2 | %9
w: |||
 [FA]>[FB] [FA][DG] [CF]4 | [EG][EG][EG][FA] [GB][GB][FA][EG] | F4- [Fc]4 | %12
w: |||
 [Ac]>[Bd] [Ac][GB] [FA]2 [FA]2 | [FA]>[FB] [FA][CG] [CF]4 | %14
w: ||
 [DG][DG].[DG].[^FA] .[GB].[GB] .[CE]>.[CE] | [CF]8 |] %16
w: ||
V:2
 x8 | x8 | x8 | x8 | x8 | x8 | x8 | x8 | x8 | x8 | x8 | A4 z4 | x8 | x8 | x8 | x8 |] %16
V:3
 CCCC CC[K:bass]B,A, | C2 A,2 A,4 | B,B,B,B,[K:treble] CCCC | C2 C2 C4 | CCCC CC[K:bass]B,A, | %5
 C2 A,2 A,4 | B,B,DB, A,A,G,A, | C2 B,2 A,4 | F>F FF C2 C2 | C>D CB, A,4 | CCCC CCCC | C4 A,4 | %12
 F>F FF C2 C2 | C>D C[K:bass]B, A,4 | B,B,B,[K:treble]C DD B,>B, | A,8 |] %16
V:4
 F,F,F,F, F,F,F,F, | F,2 F,2 F,4 | z4 A,A,A,A, | G,2 F,2 C,4 | F,F,F,F, F,F,F,F, | F,2 F,2 F,4 | %6
 z2 B,B,, C,C,C,C, | C,2 C,2 F,4 | F,>F, F,F, F,2 F,2 | F,>F, F,G, F,4 | C,C,C,C, C,C,C,C, | F,8 | %12
 F,>F, F,F, F,2 F,2 | F,>F, F,F, F,4 | B,,B,,B,,A,, G,,G,, C,>C, | F,8 |] %16

